src/icons/icons_set_01/019-oeuil.svg

<svg height="50" viewBox="0 0 50 50" width="50" xmlns="http://www.w3.org/2000/svg"><g transform="translate(2.995 10.746845)"><path d="m22.005.72942408c8.8844653 0 16.873073 5.11931046 20.8327999 13.07829682l.2216108.4454339-.2216108.4454339c-3.9597269 7.9589863-11.9483346 13.0782967-20.8327999 13.0782967s-16.87307299-5.1193104-20.83279995-13.0782967l-.22161071-.4454339.22161071-.4454339c3.95972696-7.95898636 11.94833465-13.07829682 20.83279995-13.07829682zm0 2c-7.9468364 0-15.1153551 4.48927966-18.81429256 11.52373072 3.69893746 7.034451 10.86745616 11.5237306 18.81429256 11.5237306s15.1153551-4.4892796 18.8142926-11.5237306c-3.6989375-7.03445106-10.8674562-11.52373072-18.8142926-11.52373072z"/><path d="m22 21c-5.5228475 0-10-4.4771525-10-10s4.4771525-10 10-10 10 4.4771525 10 10-4.4771525 10-10 10zm-4-7c2.209139 0 4-1.790861 4-4s-1.790861-4-4-4-4 1.790861-4 4 1.790861 4 4 4z"/></g></svg>

<?xml version="1.0" encoding="UTF-8"?>
<svg width="50px" height="50px" viewBox="0 0 50 50" version="1.1" xmlns="http://www.w3.org/2000/svg" xmlns:xlink="http://www.w3.org/1999/xlink">
    <!-- Generator: Sketch 52.4 (67378) - http://www.bohemiancoding.com/sketch -->
    <title>019-oeuil</title>
    <desc>Created with Sketch.</desc>
    <g id="019-oeuil" stroke="none" stroke-width="1" fill="none" fill-rule="evenodd">
        <g id="Group" transform="translate(2.995000, 10.746845)" fill="#000000" fill-rule="nonzero">
            <g id="028-oeuil">
                <g id="ICONSET-01">
                    <g id="028-oeuil">
                        <path d="M22.005,0.729424077 C30.8894653,0.729424077 38.878073,5.84873454 42.8377999,13.8077209 L43.0594107,14.2531548 L42.8377999,14.6985887 C38.878073,22.657575 30.8894653,27.7768854 22.005,27.7768854 C13.1205347,27.7768854 5.13192701,22.657575 1.17220005,14.6985887 L0.950589342,14.2531548 L1.17220005,13.8077209 C5.13192701,5.84873454 13.1205347,0.729424077 22.005,0.729424077 Z M22.005,2.72942408 C14.0581636,2.72942408 6.8896449,7.21870374 3.19070744,14.2531548 C6.8896449,21.2876058 14.0581636,25.7768854 22.005,25.7768854 C29.9518364,25.7768854 37.1203551,21.2876058 40.8192926,14.2531548 C37.1203551,7.21870374 29.9518364,2.72942408 22.005,2.72942408 Z" id="Shape-path"></path>
                        <path d="M22,21 C16.4771525,21 12,16.5228475 12,11 C12,5.4771525 16.4771525,1 22,1 C27.5228475,1 32,5.4771525 32,11 C32,16.5228475 27.5228475,21 22,21 Z M18,14 C20.209139,14 22,12.209139 22,10 C22,7.790861 20.209139,6 18,6 C15.790861,6 14,7.790861 14,10 C14,12.209139 15.790861,14 18,14 Z" id="Combined-Shape"></path>
                    </g>
                </g>
            </g>
        </g>
    </g>
</svg>
